packages/katcn/src/icons/svg/lock-solid.svg

<svg width="24" height="25" viewBox="0 0 24 25" fill="none" xmlns="http://www.w3.org/2000/svg">
<path d="M17.4 8.81201H17V7.41201C17.1 4.61201 14.8 2.31201 12 2.31201C9.2 2.31201 6.9 4.61201 6.9 7.41201V8.91201H6.6C4.6 8.91201 3 10.512 3 12.512V18.812C3 20.812 4.6 22.412 6.6 22.412H17.5C19.5 22.412 21.1 20.812 21.1 18.812V12.512C21 10.412 19.4 8.81201 17.4 8.81201ZM8.9 7.41201C8.9 5.71201 10.3 4.31201 12 4.31201C13.7 4.31201 15.1 5.71201 15.1 7.41201V8.91201H8.9V7.41201Z" fill="black"/>
<path d="M12 19.012C11.4 19.012 11 18.612 11 18.012V16.412C11 15.812 11.4 15.412 12 15.412C12.6 15.412 13 15.812 13 16.412V18.012C13 18.612 12.6 19.012 12 19.012Z" fill="white"/>
</svg>

<svg xmlns="http://www.w3.org/2000/svg" fill="none" viewBox="0 0 24 25"><path fill="#000" d="M17.4 8.812H17v-1.4c.1-2.8-2.2-5.1-5-5.1s-5.1 2.3-5.1 5.1v1.5h-.3c-2 0-3.6 1.6-3.6 3.6v6.3c0 2 1.6 3.6 3.6 3.6h10.9c2 0 3.6-1.6 3.6-3.6v-6.3c-.1-2.1-1.7-3.7-3.7-3.7m-8.5-1.4c0-1.7 1.4-3.1 3.1-3.1s3.1 1.4 3.1 3.1v1.5H8.9z"/><path fill="#fff" d="M12 19.012c-.6 0-1-.4-1-1v-1.6c0-.6.4-1 1-1s1 .4 1 1v1.6c0 .6-.4 1-1 1"/></svg>
